X:545
T:Blue Bonnets Over The Border
C:Joe Buchanan's Scottish Tome - Page 088.0
I:088 0
Z:Carl Allison
R:Reel
L:1/8
M:6/8
K:A
e | "A"A2 A c2 e | "A"a2 a a2 e | "G"=g>ag "D"f<af | "A"e>cA "E7"B2 c |
"A"A2 A c2 e | "A"a2 a a2 e | "D"f>ed c2 "A"e | "E7"f<ac B2 A :|
e | "A"A>ce e>ce | "D"fed "A"c>BA | "D"A>ce "D"f>ga | "A"A>Bc B2 A |
"A"A>ce e>ce | "D"f>ed "A"c>BA | "D"a>gf "A"e>ce | "E7"f<ac "A"B2 A1 :| [K:D]
"D"d3 "G"d3 | "D"d>fe d2 A | "G"d2 B B2 g | "A7"a>gf gfe |
"D"d3 "G"d3 | "D"d>fe d2 A | "G"d>cB A>Bc | d>ef "D"e2 d :|
"D"d>fa a>fd | a>gf "A7"f>ef | "D"d>fa a>fd | "D"d>ef e2 d |
"D"d>fa a>fd | a>gf "A"f>ef | d>cB "Bm"A>Bc | "A"d>ef "D"e2 d :| [K:G]
G3 G3 | G>BA G>ED | G>EE E2 D | e>dB A2 B |
G3 G3 | G>BA G>ED | c>de (d>g)G | G>AB{B} A2 G :|
G>Bd d>BG | e>dB B>AG | G>Bd e>fg | G>AB B>AG |
G>Bd d>BG | e>dB B>AG | E<GE D>EF | G>AB{B} A2 G :|
